2021/04/09/prioritizing-memory-safety-migrations/formats.svg

<svg width="242pt" height="260pt" viewBox="0 0 242 260" xmlns="http://www.w3.org/2000/svg" xmlns:xlink="http://www.w3.org/1999/xlink"><g id="graph0" class="graph" transform="scale(1 1) rotate(0) translate(4 256)"><g id="node1" class="node"><title>internet</title><path fill="none" stroke="var(--fg)" d="M42-144s-30 0-30 0c-6 0-12 6-12 12v12c0 6 6 12 12 12H42c6 0 12-6 12-12v-12c0-6-6-12-12-12"/><text text-anchor="middle" x="27" y="-123.8" font-family="Roboto" font-size="9">internet</text></g><g id="node2" class="node"><title>PNG</title><path fill="none" stroke="var(--fg)" d="M132-252s-30 0-30 0c-6 0-12 6-12 12v12c0 6 6 12 12 12h30c6 0 12-6 12-12v-12c0-6-6-12-12-12"/><text text-anchor="middle" x="117" y="-231.8" font-family="Roboto" font-size="9">PNG</text></g><g id="edge1" class="edge"><title>internet->PNG</title><path fill="none" stroke="var(--fg)" d="M42.07-144.38C60.36-168.28 90-207 90-207S90.54-207.56 91.45-208.51"/><polygon fill="var(--fg)" stroke="var(--fg)" points="89.06,-211.07 98.51,-215.84 94.1,-206.21 89.06,-211.07"/></g><g id="node3" class="node"><title>JPEG</title><path fill="none" stroke="var(--fg)" d="M132-198s-30 0-30 0c-6 0-12 6-12 12v12c0 6 6 12 12 12h30c6 0 12-6 12-12v-12c0-6-6-12-12-12"/><text text-anchor="middle" x="117" y="-177.8" font-family="Roboto" font-size="9">JPEG</text></g><g id="edge2" class="edge"><title>internet->JPEG</title><path fill="none" stroke="var(--fg)" d="M54.4-142.2C62.83-147.37 72.29-153.18 81.22-158.66"/><polygon fill="var(--fg)" stroke="var(--fg)" points="79.57,-161.75 89.92,-164 83.23,-155.78 79.57,-161.75"/></g><g id="node4" class="node"><title>GIF</title><path fill="none" stroke="var(--fg)" d="M132-144s-30 0-30 0c-6 0-12 6-12 12v12c0 6 6 12 12 12h30c6 0 12-6 12-12v-12c0-6-6-12-12-12"/><text text-anchor="middle" x="117" y="-123.8" font-family="Roboto" font-size="9">GIF</text></g><g id="edge3" class="edge"><title>internet->GIF</title><path fill="none" stroke="var(--fg)" d="M54.4-126c7.99.0 16.91.0 25.42.0"/><polygon fill="var(--fg)" stroke="var(--fg)" points="79.92,-129.5 89.92,-126 79.92,-122.5 79.92,-129.5"/></g><g id="node5" class="node"><title>TIFF</title><path fill="none" stroke="var(--fg)" d="M132-90s-30 0-30 0c-6 0-12 6-12 12v12c0 6 6 12 12 12h30c6 0 12-6 12-12V-78c0-6-6-12-12-12"/><text text-anchor="middle" x="117" y="-69.8" font-family="Roboto" font-size="9">TIFF</text></g><g id="edge4" class="edge"><title>internet->TIFF</title><path fill="none" stroke="var(--fg)" d="M54.4-109.8c8.43 5.17 17.89 10.98 26.82 16.46"/><polygon fill="var(--fg)" stroke="var(--fg)" points="83.23,-96.22 89.92,-88 79.57,-90.25 83.23,-96.22"/></g><g id="node6" class="node"><title>...</title><path fill="none" stroke="var(--fg)" d="M132-36s-30 0-30 0c-6 0-12 6-12 12v12c0 6 6 12 12 12h30c6 0 12-6 12-12V-24c0-6-6-12-12-12"/><text text-anchor="middle" x="117" y="-15.8" font-family="Roboto" font-size="9">...</text></g><g id="edge5" class="edge"><title>internet->...</title><path fill="none" stroke="var(--fg)" d="M42.07-107.62C60.36-83.72 90-45 90-45S90.54-44.44 91.45-43.49"/><polygon fill="var(--fg)" stroke="var(--fg)" points="94.1,-45.79 98.51,-36.16 89.06,-40.93 94.1,-45.79"/></g><g id="node7" class="node"><title>SkBitmap</title><path fill="none" stroke="var(--fg)" d="M222-144s-30 0-30 0c-6 0-12 6-12 12v12c0 6 6 12 12 12h30c6 0 12-6 12-12v-12c0-6-6-12-12-12"/><text text-anchor="middle" x="207" y="-123.8" font-family="Roboto" font-size="9">SkBitmap</text></g><g id="edge6" class="edge"><title>PNG->SkBitmap</title><path fill="none" stroke="var(--fg)" d="M135.49-215.84C140.19-210.96 144-207 144-207s23.72 30.98 41.81 54.63"/><polygon fill="var(--fg)" stroke="var(--fg)" points="188.63,-154.45 191.93,-144.38 183.07,-150.19 188.63,-154.45"/></g><g id="edge7" class="edge"><title>JPEG->SkBitmap</title><path fill="none" stroke="var(--fg)" d="M144.4-163.8C152.83-158.63 162.29-152.82 171.22-147.34"/><polygon fill="var(--fg)" stroke="var(--fg)" points="173.23,-150.22 179.92,-142 169.57,-144.25 173.23,-150.22"/></g><g id="edge8" class="edge"><title>GIF->SkBitmap</title><path fill="none" stroke="var(--fg)" d="M144.4-126C152.39-126 161.31-126 169.82-126"/><polygon fill="var(--fg)" stroke="var(--fg)" points="169.92,-129.5 179.92,-126 169.92,-122.5 169.92,-129.5"/></g><g id="edge9" class="edge"><title>TIFF->SkBitmap</title><path fill="none" stroke="var(--fg)" d="M144.4-88.2C152.83-93.37 162.29-99.18 171.22-104.66"/><polygon fill="var(--fg)" stroke="var(--fg)" points="169.57,-107.75 179.92,-110 173.23,-101.78 169.57,-107.75"/></g><g id="edge10" class="edge"><title>...->SkBitmap</title><path fill="none" stroke="var(--fg)" d="M135.49-36.16C140.19-41.04 144-45 144-45s23.72-30.98 41.81-54.63"/><polygon fill="var(--fg)" stroke="var(--fg)" points="183.07,-101.81 191.93,-107.62 188.63,-97.55 183.07,-101.81"/></g></g></svg>

<?xml version="1.0" encoding="UTF-8" standalone="no"?>
<!DOCTYPE svg PUBLIC "-//W3C//DTD SVG 1.1//EN"
 "http://www.w3.org/Graphics/SVG/1.1/DTD/svg11.dtd">
<!-- Generated by graphviz version 2.42.4 (0)
 -->
<!-- Pages: 1 -->
<svg width="242pt" height="260pt"
 viewBox="0.00 0.00 242.00 260.00" xmlns="http://www.w3.org/2000/svg" xmlns:xlink="http://www.w3.org/1999/xlink">
<g id="graph0" class="graph" transform="scale(1 1) rotate(0) translate(4 256)">
<!-- internet -->
<g id="node1" class="node">
<title>internet</title>
<path fill="none" stroke="var(--fg)" d="M42,-144C42,-144 12,-144 12,-144 6,-144 0,-138 0,-132 0,-132 0,-120 0,-120 0,-114 6,-108 12,-108 12,-108 42,-108 42,-108 48,-108 54,-114 54,-120 54,-120 54,-132 54,-132 54,-138 48,-144 42,-144"/>
<text text-anchor="middle" x="27" y="-123.8" font-family="Roboto" font-size="9.00">internet</text>
</g>
<!-- PNG -->
<g id="node2" class="node">
<title>PNG</title>
<path fill="none" stroke="var(--fg)" d="M132,-252C132,-252 102,-252 102,-252 96,-252 90,-246 90,-240 90,-240 90,-228 90,-228 90,-222 96,-216 102,-216 102,-216 132,-216 132,-216 138,-216 144,-222 144,-228 144,-228 144,-240 144,-240 144,-246 138,-252 132,-252"/>
<text text-anchor="middle" x="117" y="-231.8" font-family="Roboto" font-size="9.00">PNG</text>
</g>
<!-- internet&#45;&gt;PNG -->
<g id="edge1" class="edge">
<title>internet&#45;&gt;PNG</title>
<path fill="none" stroke="var(--fg)" d="M42.07,-144.38C60.36,-168.28 90,-207 90,-207 90,-207 90.54,-207.56 91.45,-208.51"/>
<polygon fill="var(--fg)" stroke="var(--fg)" points="89.06,-211.07 98.51,-215.84 94.1,-206.21 89.06,-211.07"/>
</g>
<!-- JPEG -->
<g id="node3" class="node">
<title>JPEG</title>
<path fill="none" stroke="var(--fg)" d="M132,-198C132,-198 102,-198 102,-198 96,-198 90,-192 90,-186 90,-186 90,-174 90,-174 90,-168 96,-162 102,-162 102,-162 132,-162 132,-162 138,-162 144,-168 144,-174 144,-174 144,-186 144,-186 144,-192 138,-198 132,-198"/>
<text text-anchor="middle" x="117" y="-177.8" font-family="Roboto" font-size="9.00">JPEG</text>
</g>
<!-- internet&#45;&gt;JPEG -->
<g id="edge2" class="edge">
<title>internet&#45;&gt;JPEG</title>
<path fill="none" stroke="var(--fg)" d="M54.4,-142.2C62.83,-147.37 72.29,-153.18 81.22,-158.66"/>
<polygon fill="var(--fg)" stroke="var(--fg)" points="79.57,-161.75 89.92,-164 83.23,-155.78 79.57,-161.75"/>
</g>
<!-- GIF -->
<g id="node4" class="node">
<title>GIF</title>
<path fill="none" stroke="var(--fg)" d="M132,-144C132,-144 102,-144 102,-144 96,-144 90,-138 90,-132 90,-132 90,-120 90,-120 90,-114 96,-108 102,-108 102,-108 132,-108 132,-108 138,-108 144,-114 144,-120 144,-120 144,-132 144,-132 144,-138 138,-144 132,-144"/>
<text text-anchor="middle" x="117" y="-123.8" font-family="Roboto" font-size="9.00">GIF</text>
</g>
<!-- internet&#45;&gt;GIF -->
<g id="edge3" class="edge">
<title>internet&#45;&gt;GIF</title>
<path fill="none" stroke="var(--fg)" d="M54.4,-126C62.39,-126 71.31,-126 79.82,-126"/>
<polygon fill="var(--fg)" stroke="var(--fg)" points="79.92,-129.5 89.92,-126 79.92,-122.5 79.92,-129.5"/>
</g>
<!-- TIFF -->
<g id="node5" class="node">
<title>TIFF</title>
<path fill="none" stroke="var(--fg)" d="M132,-90C132,-90 102,-90 102,-90 96,-90 90,-84 90,-78 90,-78 90,-66 90,-66 90,-60 96,-54 102,-54 102,-54 132,-54 132,-54 138,-54 144,-60 144,-66 144,-66 144,-78 144,-78 144,-84 138,-90 132,-90"/>
<text text-anchor="middle" x="117" y="-69.8" font-family="Roboto" font-size="9.00">TIFF</text>
</g>
<!-- internet&#45;&gt;TIFF -->
<g id="edge4" class="edge">
<title>internet&#45;&gt;TIFF</title>
<path fill="none" stroke="var(--fg)" d="M54.4,-109.8C62.83,-104.63 72.29,-98.82 81.22,-93.34"/>
<polygon fill="var(--fg)" stroke="var(--fg)" points="83.23,-96.22 89.92,-88 79.57,-90.25 83.23,-96.22"/>
</g>
<!-- ... -->
<g id="node6" class="node">
<title>...</title>
<path fill="none" stroke="var(--fg)" d="M132,-36C132,-36 102,-36 102,-36 96,-36 90,-30 90,-24 90,-24 90,-12 90,-12 90,-6 96,0 102,0 102,0 132,0 132,0 138,0 144,-6 144,-12 144,-12 144,-24 144,-24 144,-30 138,-36 132,-36"/>
<text text-anchor="middle" x="117" y="-15.8" font-family="Roboto" font-size="9.00">...</text>
</g>
<!-- internet&#45;&gt;... -->
<g id="edge5" class="edge">
<title>internet&#45;&gt;...</title>
<path fill="none" stroke="var(--fg)" d="M42.07,-107.62C60.36,-83.72 90,-45 90,-45 90,-45 90.54,-44.44 91.45,-43.49"/>
<polygon fill="var(--fg)" stroke="var(--fg)" points="94.1,-45.79 98.51,-36.16 89.06,-40.93 94.1,-45.79"/>
</g>
<!-- SkBitmap -->
<g id="node7" class="node">
<title>SkBitmap</title>
<path fill="none" stroke="var(--fg)" d="M222,-144C222,-144 192,-144 192,-144 186,-144 180,-138 180,-132 180,-132 180,-120 180,-120 180,-114 186,-108 192,-108 192,-108 222,-108 222,-108 228,-108 234,-114 234,-120 234,-120 234,-132 234,-132 234,-138 228,-144 222,-144"/>
<text text-anchor="middle" x="207" y="-123.8" font-family="Roboto" font-size="9.00">SkBitmap</text>
</g>
<!-- PNG&#45;&gt;SkBitmap -->
<g id="edge6" class="edge">
<title>PNG&#45;&gt;SkBitmap</title>
<path fill="none" stroke="var(--fg)" d="M135.49,-215.84C140.19,-210.96 144,-207 144,-207 144,-207 167.72,-176.02 185.81,-152.37"/>
<polygon fill="var(--fg)" stroke="var(--fg)" points="188.63,-154.45 191.93,-144.38 183.07,-150.19 188.63,-154.45"/>
</g>
<!-- JPEG&#45;&gt;SkBitmap -->
<g id="edge7" class="edge">
<title>JPEG&#45;&gt;SkBitmap</title>
<path fill="none" stroke="var(--fg)" d="M144.4,-163.8C152.83,-158.63 162.29,-152.82 171.22,-147.34"/>
<polygon fill="var(--fg)" stroke="var(--fg)" points="173.23,-150.22 179.92,-142 169.57,-144.25 173.23,-150.22"/>
</g>
<!-- GIF&#45;&gt;SkBitmap -->
<g id="edge8" class="edge">
<title>GIF&#45;&gt;SkBitmap</title>
<path fill="none" stroke="var(--fg)" d="M144.4,-126C152.39,-126 161.31,-126 169.82,-126"/>
<polygon fill="var(--fg)" stroke="var(--fg)" points="169.92,-129.5 179.92,-126 169.92,-122.5 169.92,-129.5"/>
</g>
<!-- TIFF&#45;&gt;SkBitmap -->
<g id="edge9" class="edge">
<title>TIFF&#45;&gt;SkBitmap</title>
<path fill="none" stroke="var(--fg)" d="M144.4,-88.2C152.83,-93.37 162.29,-99.18 171.22,-104.66"/>
<polygon fill="var(--fg)" stroke="var(--fg)" points="169.57,-107.75 179.92,-110 173.23,-101.78 169.57,-107.75"/>
</g>
<!-- ...&#45;&gt;SkBitmap -->
<g id="edge10" class="edge">
<title>...&#45;&gt;SkBitmap</title>
<path fill="none" stroke="var(--fg)" d="M135.49,-36.16C140.19,-41.04 144,-45 144,-45 144,-45 167.72,-75.98 185.81,-99.63"/>
<polygon fill="var(--fg)" stroke="var(--fg)" points="183.07,-101.81 191.93,-107.62 188.63,-97.55 183.07,-101.81"/>
</g>
</g>
</svg>
